images/second-click.svg

<svg fill="none" height="60" viewBox="0 0 73 60" width="73" xmlns="http://www.w3.org/2000/svg"><path d="m14.3194 29.9905-1.215 2.8167c-.2114.4899-.0085 1.0486.4531 1.2477l13.6655 5.8949c.4617.1992 1.0072-.0366 1.2186-.5266l1.215-2.8167c.2114-.49.0085-1.0486-.4531-1.2477l-13.6655-5.895c-.4617-.1991-1.0072.0367-1.2186.5267z" fill="#fff"/><path d="m14.5103 27.7626-1.215 2.8166c-.2114.49-.0085 1.0487.4531 1.2478l13.6656 5.8949c.4616.1992 1.0071-.0366 1.2185-.5266l1.215-2.8167c.2114-.49.0085-1.0486-.4531-1.2477l-13.6655-5.895c-.4616-.1991-1.0072.0367-1.2186.5267z" fill="#002922"/><path d="m27.4905 48.8279-14.077 5.5923c-.4755.1889-.7013.7441-.5043 1.24l1.1325 2.8508c.1971.4959.7423.7448 1.2178.5559l14.077-5.5922c.4755-.1889.7012-.7441.5042-1.24l-1.1325-2.8508c-.197-.4959-.7422-.7449-1.2177-.556z" fill="#fff"/><path d="m27.6817 46.6-14.077 5.5923c-.4755.1889-.7013.744-.5043 1.24l1.1325 2.8508c.197.4959.7422.7448 1.2177.5559l14.077-5.5922c.4755-.1889.7013-.7441.5043-1.24l-1.1325-2.8508c-.197-.496-.7422-.7449-1.2177-.556z" fill="#002922"/><path d="m57.8593 12.894-5.895 13.6656c-.1991.4616.0367 1.0071.5266 1.2185l2.8167 1.215c.49.2114 1.0486.0085 1.2478-.4531l5.8949-13.6655c.1991-.4616-.0366-1.0072-.5266-1.2186l-2.8167-1.215c-.49-.2114-1.0486-.0085-1.2477.4531z" fill="#fff"/><path d="m58.0502 10.6661-5.895 13.6656c-.1991.4616.0367 1.0071.5267 1.2185l2.8166 1.215c.49.2114 1.0487.0085 1.2478-.4531l5.8949-13.6655c.1992-.4616-.0366-1.0072-.5266-1.2186l-2.8167-1.215c-.4899-.2114-1.0486-.0085-1.2477.4531z" fill="#002922"/><path d="m35.1558 11.3502-2.8509 1.1326c-.4959.197-.7448.7422-.5559 1.2177l5.5922 14.077c.1889.4755.7441.7013 1.24.5042l2.8509-1.1325c.4959-.197.7448-.7422.5559-1.2177l-5.5922-14.077c-.1889-.4755-.7441-.7013-1.24-.5043z" fill="#fff"/><path d="m35.3467 9.12232-2.8508 1.13258c-.496.197-.7449.7422-.556 1.2177l5.5923 14.077c.1889.4755.744.7013 1.24.5042l2.8508-1.1325c.4959-.197.7448-.7422.5559-1.2177l-5.5922-14.077c-.1889-.47551-.7441-.70129-1.24-.50428z" fill="#002922"/></svg>

<svg width="73" height="60" viewBox="0 0 73 60" fill="none" xmlns="http://www.w3.org/2000/svg">
<path d="M14.3194 29.9905L13.1044 32.8072C12.893 33.2971 13.0959 33.8558 13.5575 34.0549L27.223 39.9498C27.6847 40.149 28.2302 39.9132 28.4416 39.4232L29.6566 36.6065C29.868 36.1165 29.6651 35.5579 29.2035 35.3588L15.538 29.4638C15.0763 29.2647 14.5308 29.5005 14.3194 29.9905Z" fill="white"/>
<path d="M14.5103 27.7626L13.2953 30.5792C13.0839 31.0692 13.2868 31.6279 13.7484 31.827L27.414 37.7219C27.8756 37.9211 28.4211 37.6853 28.6325 37.1953L29.8475 34.3786C30.0589 33.8886 29.856 33.33 29.3944 33.1309L15.7289 27.2359C15.2673 27.0368 14.7217 27.2726 14.5103 27.7626Z" fill="#002922"/>
<path d="M27.4905 48.8279L13.4135 54.4202C12.938 54.6091 12.7122 55.1643 12.9092 55.6602L14.0417 58.511C14.2388 59.0069 14.784 59.2558 15.2595 59.0669L29.3365 53.4747C29.812 53.2858 30.0377 52.7306 29.8407 52.2347L28.7082 49.3839C28.5112 48.888 27.966 48.639 27.4905 48.8279Z" fill="white"/>
<path d="M27.6817 46.6L13.6047 52.1923C13.1292 52.3812 12.9034 52.9363 13.1004 53.4323L14.2329 56.2831C14.4299 56.779 14.9751 57.0279 15.4506 56.839L29.5276 51.2468C30.0031 51.0579 30.2289 50.5027 30.0319 50.0068L28.8994 47.156C28.7024 46.66 28.1572 46.4111 27.6817 46.6Z" fill="#002922"/>
<path d="M57.8593 12.894L51.9643 26.5596C51.7652 27.0212 52.001 27.5667 52.4909 27.7781L55.3076 28.9931C55.7976 29.2045 56.3562 29.0016 56.5554 28.54L62.4503 14.8745C62.6494 14.4129 62.4137 13.8673 61.9237 13.6559L59.107 12.4409C58.617 12.2295 58.0584 12.4324 57.8593 12.894Z" fill="white"/>
<path d="M58.0502 10.6661L52.1552 24.3317C51.9561 24.7933 52.1919 25.3388 52.6819 25.5502L55.4985 26.7652C55.9885 26.9766 56.5472 26.7737 56.7463 26.3121L62.6412 12.6466C62.8404 12.185 62.6046 11.6394 62.1146 11.428L59.2979 10.213C58.808 10.0016 58.2493 10.2045 58.0502 10.6661Z" fill="#002922"/>
<path d="M35.1558 11.3502L32.3049 12.4828C31.809 12.6798 31.5601 13.225 31.749 13.7005L37.3412 27.7775C37.5301 28.253 38.0853 28.4788 38.5812 28.2817L41.4321 27.1492C41.928 26.9522 42.1769 26.407 41.988 25.9315L36.3958 11.8545C36.2069 11.379 35.6517 11.1532 35.1558 11.3502Z" fill="white"/>
<path d="M35.3467 9.12232L32.4959 10.2549C31.9999 10.4519 31.751 10.9971 31.9399 11.4726L37.5322 25.5496C37.7211 26.0251 38.2762 26.2509 38.7722 26.0538L41.623 24.9213C42.1189 24.7243 42.3678 24.1791 42.1789 23.7036L36.5867 9.6266C36.3978 9.15109 35.8426 8.92531 35.3467 9.12232Z" fill="#002922"/>
</svg>
